babel.svg

<svg fill="currentColor" viewBox="0 0 24 24"><path d="M15.14 2c-1.34.12-3.1.59-5.27 1.43-.59.44-1.27.87-2.03 1.29v.13c.06 0 .12-.04.2-.08.09-.01.15.02.15.11l.13-.08.07-.01.01.07c.01.06-.47.43-1.4 1.1l.06.13H7l-.16-.05c0 .05-.06.07-.2.08l.01.07.16.18c-.06 0-.13-.01-.21-.05-.31.03-.6.26-.91.68l.08.12q.39-.36.45-.36l.02.19c-.04 0-.12.05-.2.08l.16.24c.3-.34.66-.63 1.04-.86.19.05.29.09.29.17l.14-.01c1.02-.76 2.04-1.3 3.04-1.64l.01.13c-.19.28-.32.44-.39.44.01.09.05.17.1.24.02.18-.43 1.32-1.36 3.45-2.12 4.94-3.88 8.59-5.3 10.97 0 .04.03.11.08.19.35-.09.57-.17.65-.25l.1-.01.01.13.13-.01.14-.08c0 .05.05.06.12.05l.03.13c0 .14-.07.34-.23.61-.15.16-.3.5-.46 1.02V22h.13c.57-.65 1.03-1.28 1.31-1.89 1.66-.49 2.93-.96 3.81-1.44.88-.07 1.56-.3 2.02-.67l-.01-.09-.33.09h-.08l-.01-.05c.65-.1 1.1-.25 1.32-.45 1.29-.96 2.24-1.65 2.89-2.06 2-1.47 2.94-2.89 2.83-4.23-.01-.14-.46-.71-1.32-1.65-.02-.18.29-.44.9-.79l1.73-1.53c.39-.5.62-1.3.7-2.41l-.03-.26c-.06-.78-.62-1.41-1.7-1.89-.62-.43-1.74-.65-3.36-.68m2.1.87c1.29.05 1.95.27 1.99.68l-.05.13zM16 3.96c.89-.01 1.35.22 1.4.72l.1-.01v-.33l.14-.01c.36.17.52.41.54.67.02.2-.08.42-.29.69-.09.01-.14-.05-.15-.19h-.14l-.04.41c-.56.87-1 1.32-1.26 1.35-.24.32-.39.49-.45.49-.18.22-.68.6-1.5 1.12-.27.03-1.28.41-3.01 1.17-.09-.04-.18-.04-.28-.04l-.01-.12c-.02-.26.09-.57.34-.96.11-.71.28-1.12.44-1.22l1.45-3.26c-.01-.2.29-.35.93-.44l.21-.04.02.19c.62-.1 1.01-.15 1.16-.15.14-.03.28-.04.4-.04m3 .33h.04c.12.01.24.21.37.62l.01.12c-.07.01-.2-.2-.39-.62zm-8.18 2.07h.06l.02.19c-.06.01-.15.1-.25.28l-.01-.13c.12-.15.18-.27.18-.34m-4.15.1.01.04c-.05 0-.12.06-.18.1l-.09.01-.02-.11zm3.57 1.26.02.28h-.07l-.03-.27zm-.17.47c-.02.22-.07.31-.18.34l-.07.01c.08-.15.12-.25.11-.33zm-.29.68.01.06-.12.21-.13.01-.01-.06c.13-.01.19-.09.18-.21zm-.28.63-.05.31h-.07l-.02-.31zm7.07.22.28.17c.01.11-.03.14-.12.15a.6.6 0 0 0-.29-.11l-.01-.2zm-5.57.74.03.12-.27.03-.01-.11zm4.5.45c.18.09.28.18.29.25l.01.06c-.19.02-.35-.08-.51-.29zm2.16.21c.15.06.22.13.23.19l.04.51c-.06.14-.12.21-.19.21zm-3.5.06c.7-.01 1.24.15 1.6.5l.03.26c-.29.91-.66 1.44-1.04 1.6L13 14.93c-1.3.86-2 1.28-2.1 1.29-2.07 1.14-3.36 1.73-3.86 1.78h-.08c.07-.24.99-2.13 2.77-5.67.77-.07 2.03-.44 3.71-1.1l.41-.04c.11 0 .21-.01.31-.01m-2.54.41.01.06-.28.02-.01-.06zm-4.36 4.22c-.09.45-.18.69-.26.69l-.03-.07c-.02-.23.08-.43.29-.62m5.92.28.01.12c.01.06-.19.22-.59.51-1.16.57-1.84.96-2.04 1.16-1.26.44-1.88.71-1.87.81-1.12.45-1.85.77-2.19.97-.09.01-.21-.03-.37-.1-.01-.22.08-.41.31-.56.19 0 .38 0 .56.09.21-.09.57-.22 1.08-.35l-.01-.13-.41.04c.05-.07.45-.25 1.2-.56l.21-.02.01.06c-.35.03-.55.14-.58.33 0 .07.03.12.12.11.25-.18.38-.27.38-.3.5-.09 1.9-.83 4.18-2.18m-6.32.6.01.06c.01.09-.04.14-.13.15v-.06q-.015-.12.12-.15m3.14.81c.07-.03.12 0 .12.08-.16.02-.47.15-.93.42h-.07l-.01-.13c.33-.03.62-.16.86-.37zm-3.05 1 .01.08c-.06 0-.12.03-.21.08l-.13.01c-.01-.06.03-.12.12-.14zm-1.6.8.15.06c-.06.4-.17.6-.37.64a.75.75 0 0 0-.43-.11l-.02-.19c-.01-.08.04-.13.14-.15.08-.01.13.05.14.18.24-.29.37-.43.39-.43"/></svg>

<svg  viewBox="0 0 24 24" fill="currentColor"><path  d="M15.14 2C13.8 2.12 12.04 2.59 9.87 3.43C9.28 3.87 8.6 4.3 7.84 4.72V4.85C7.9 4.85 7.96 4.81 8.04 4.77C8.13 4.76 8.19 4.79 8.19 4.88L8.32 4.8L8.39 4.79L8.4 4.86C8.41 4.92 7.93 5.29 7 5.96L7.06 6.09H7L6.84 6.04C6.84 6.09 6.78 6.11 6.64 6.12L6.65 6.19L6.81 6.37C6.75 6.37 6.68 6.36 6.6 6.32C6.29 6.35 6 6.58 5.69 7L5.77 7.12C6.03 6.88 6.18 6.76 6.22 6.76L6.24 6.95C6.2 6.95 6.12 7 6.04 7.03L6.2 7.27C6.5 6.93 6.86 6.64 7.24 6.41C7.43 6.46 7.53 6.5 7.53 6.58L7.67 6.57C8.69 5.81 9.71 5.27 10.71 4.93L10.72 5.06C10.53 5.34 10.4 5.5 10.33 5.5C10.34 5.59 10.38 5.67 10.43 5.74C10.45 5.92 10 7.06 9.07 9.19C6.95 14.13 5.19 17.78 3.77 20.16C3.77 20.2 3.8 20.27 3.85 20.35C4.2 20.26 4.42 20.18 4.5 20.1L4.6 20.09L4.61 20.22L4.74 20.21L4.88 20.13C4.88 20.18 4.93 20.19 5 20.18L5.03 20.31C5.03 20.45 4.96 20.65 4.8 20.92C4.65 21.08 4.5 21.42 4.34 21.94V22H4.47C5.04 21.35 5.5 20.72 5.78 20.11C7.44 19.62 8.71 19.15 9.59 18.67C10.47 18.6 11.15 18.37 11.61 18L11.6 17.91L11.27 18H11.19L11.18 17.95C11.83 17.85 12.28 17.7 12.5 17.5C13.79 16.54 14.74 15.85 15.39 15.44C17.39 13.97 18.33 12.55 18.22 11.21C18.21 11.07 17.76 10.5 16.9 9.56C16.88 9.38 17.19 9.12 17.8 8.77L19.53 7.24C19.92 6.74 20.15 5.94 20.23 4.83L20.2 4.57C20.14 3.79 19.58 3.16 18.5 2.68C17.88 2.25 16.76 2.03 15.14 2M17.24 2.87C18.53 2.92 19.19 3.14 19.23 3.55L19.18 3.68L17.24 2.87M16 3.96C16.89 3.95 17.35 4.18 17.4 4.68L17.5 4.67V4.34L17.64 4.33C18 4.5 18.16 4.74 18.18 5C18.2 5.2 18.1 5.42 17.89 5.69C17.8 5.7 17.75 5.64 17.74 5.5H17.6L17.56 5.91C17 6.78 16.56 7.23 16.3 7.26C16.06 7.58 15.91 7.75 15.85 7.75C15.67 7.97 15.17 8.35 14.35 8.87C14.08 8.9 13.07 9.28 11.34 10.04C11.25 10 11.16 10 11.06 10L11.05 9.88C11.03 9.62 11.14 9.31 11.39 8.92C11.5 8.21 11.67 7.8 11.83 7.7L13.28 4.44C13.27 4.24 13.57 4.09 14.21 4L14.42 3.96L14.44 4.15C15.06 4.05 15.45 4 15.6 4C15.74 3.97 15.88 3.96 16 3.96M19 4.29H19.04C19.16 4.3 19.28 4.5 19.41 4.91L19.42 5.03C19.35 5.04 19.22 4.83 19.03 4.41L19 4.29M10.82 6.36H10.88L10.9 6.55C10.84 6.56 10.75 6.65 10.65 6.83L10.64 6.7C10.76 6.55 10.82 6.43 10.82 6.36M6.67 6.46L6.68 6.5C6.63 6.5 6.56 6.56 6.5 6.6L6.41 6.61L6.39 6.5L6.67 6.46M10.24 7.72L10.26 8H10.19L10.16 7.73L10.24 7.72M10.07 8.19C10.05 8.41 10 8.5 9.89 8.53L9.82 8.54C9.9 8.39 9.94 8.29 9.93 8.21L10.07 8.19M9.78 8.87L9.79 8.93L9.67 9.14L9.54 9.15L9.53 9.09C9.66 9.08 9.72 9 9.71 8.88L9.78 8.87M9.5 9.5L9.45 9.81H9.38L9.36 9.5H9.5M16.57 9.72L16.85 9.89C16.86 10 16.82 10.03 16.73 10.04C16.61 9.96 16.5 9.93 16.44 9.93L16.43 9.73L16.57 9.72M11 10.46L11.03 10.58L10.76 10.61L10.75 10.5L11 10.46M15.5 10.91C15.68 11 15.78 11.09 15.79 11.16L15.8 11.22C15.61 11.24 15.45 11.14 15.29 10.93L15.5 10.91M17.66 11.12C17.81 11.18 17.88 11.25 17.89 11.31L17.93 11.82C17.87 11.96 17.81 12.03 17.74 12.03L17.66 11.12M14.16 11.18C14.86 11.17 15.4 11.33 15.76 11.68L15.79 11.94C15.5 12.85 15.13 13.38 14.75 13.54L13 14.93C11.7 15.79 11 16.21 10.9 16.22C8.83 17.36 7.54 17.95 7.04 18H6.96C7.03 17.76 7.95 15.87 9.73 12.33C10.5 12.26 11.76 11.89 13.44 11.23L13.85 11.19C13.96 11.19 14.06 11.18 14.16 11.18M11.62 11.59L11.63 11.65L11.35 11.67L11.34 11.61L11.62 11.59M7.26 15.81C7.17 16.26 7.08 16.5 7 16.5L6.97 16.43C6.95 16.2 7.05 16 7.26 15.81M13.18 16.09L13.19 16.21C13.2 16.27 13 16.43 12.6 16.72C11.44 17.29 10.76 17.68 10.56 17.88C9.3 18.32 8.68 18.59 8.69 18.69C7.57 19.14 6.84 19.46 6.5 19.66C6.41 19.67 6.29 19.63 6.13 19.56C6.12 19.34 6.21 19.15 6.44 19C6.63 19 6.82 19 7 19.09C7.21 19 7.57 18.87 8.08 18.74L8.07 18.61L7.66 18.65C7.71 18.58 8.11 18.4 8.86 18.09L9.07 18.07L9.08 18.13C8.73 18.16 8.53 18.27 8.5 18.46C8.5 18.53 8.53 18.58 8.62 18.57C8.87 18.39 9 18.3 9 18.27C9.5 18.18 10.9 17.44 13.18 16.09M6.86 16.69L6.87 16.75C6.88 16.84 6.83 16.89 6.74 16.9V16.84C6.73 16.76 6.77 16.71 6.86 16.69M10 17.5C10.07 17.47 10.12 17.5 10.12 17.58C9.96 17.6 9.65 17.73 9.19 18H9.12L9.11 17.87C9.44 17.84 9.73 17.71 9.97 17.5H10M6.95 18.5L6.96 18.58C6.9 18.58 6.84 18.61 6.75 18.66L6.62 18.67C6.61 18.61 6.65 18.55 6.74 18.53L6.95 18.5M5.35 19.3L5.5 19.36C5.44 19.76 5.33 19.96 5.13 20C4.97 19.91 4.83 19.88 4.7 19.89L4.68 19.7C4.67 19.62 4.72 19.57 4.82 19.55C4.9 19.54 4.95 19.6 4.96 19.73C5.2 19.44 5.33 19.3 5.35 19.3Z"/></svg>
